X:3003
T:Chorus Reel, The
T:Chorus Jig, The
R:reel
H:See also "The Glen Road to Carrick", #336
H:Related to jig#239 (The Kilfenora Jig)
D:Jerry O'Sullivan
Z:id:hn-reel-486
M:C|
K:Dmix
AD~D2 AGFG|AD~D2 A2dB|AD~D2 AGFG|~E2cA G2FG|
AD~D2 AGFG|AD~D2 D2dB|AD~D2 AGFG|~E2cA G2FG||
Addc AGFG|Addc ~A3G|Fddc AGFG|~E2cA G2FG|
Addc AGFG|Addc A2Bc|dBcA BGAG|~E2cA G2eg||
|:~f2dg f2dg|~f2df ~a3g|f2dg ~f2df|~e3f g2ag:|
|:fde^c d2dB|AD~D2 A2Bc|dBcA BGAG|1 E2cA G2ag:|2 E2cA G2FG||


